symbols/web/sort_by_alpha/materialsymbolsrounded/sort_by_alpha_wght500gradN25_40px.svg

<svg xmlns="http://www.w3.org/2000/svg" height="40" width="40"><path d="M5.5 28.25q-.875 0-1.229-.542-.354-.541-.063-1.375L9.5 13.083q.208-.583.792-.958.583-.375 1.208-.375.583 0 1.167.375.583.375.791.958l5.25 13.25q.292.834-.083 1.375-.375.542-1.25.542-.375 0-.687-.229-.313-.229-.438-.563L15 24.25H7.875l-1.25 3.208q-.125.334-.437.563-.313.229-.688.229Zm3.25-6.417h5.333l-2.541-7h-.209Zm15.875 6.417q-.75 0-1.292-.542-.541-.541-.541-1.291 0-.375.146-.834.145-.458.395-.75l8.584-10.666h-7.292q-.5 0-.854-.354-.354-.355-.354-.855t.354-.854q.354-.354.854-.354H33q.75 0 1.271.542.521.541.521 1.333 0 .333-.146.813-.146.479-.396.77l-8.458 10.625h7.875q.5 0 .854.355.354.354.354.854t-.354.854q-.354.354-.854.354ZM17.5 7.833q-.542 0-.729-.5-.188-.5.187-.833l2.5-2.5q.042-.083.542-.25.125 0 .542.25l2.541 2.5q.334.333.146.833-.187.5-.687.5ZM20 36.25q-.083 0-.542-.25l-2.5-2.5q-.375-.333-.187-.833.187-.5.687-.5h5.084q.5 0 .687.5.188.5-.146.833l-2.5 2.5q-.083.042-.583.25Z"/></svg>

<svg xmlns="http://www.w3.org/2000/svg" height="40" width="40"><path d="M5.5 28.25Q4.625 28.25 4.271 27.708Q3.917 27.167 4.208 26.333L9.5 13.083Q9.708 12.5 10.292 12.125Q10.875 11.75 11.5 11.75Q12.083 11.75 12.667 12.125Q13.25 12.5 13.458 13.083L18.708 26.333Q19 27.167 18.625 27.708Q18.25 28.25 17.375 28.25Q17 28.25 16.688 28.021Q16.375 27.792 16.25 27.458L15 24.25H7.875L6.625 27.458Q6.5 27.792 6.188 28.021Q5.875 28.25 5.5 28.25ZM8.75 21.833H14.083L11.542 14.833H11.333ZM24.625 28.25Q23.875 28.25 23.333 27.708Q22.792 27.167 22.792 26.417Q22.792 26.042 22.938 25.583Q23.083 25.125 23.333 24.833L31.917 14.167H24.625Q24.125 14.167 23.771 13.813Q23.417 13.458 23.417 12.958Q23.417 12.458 23.771 12.104Q24.125 11.75 24.625 11.75H33Q33.75 11.75 34.271 12.292Q34.792 12.833 34.792 13.625Q34.792 13.958 34.646 14.438Q34.5 14.917 34.25 15.208L25.792 25.833H33.667Q34.167 25.833 34.521 26.188Q34.875 26.542 34.875 27.042Q34.875 27.542 34.521 27.896Q34.167 28.25 33.667 28.25ZM17.5 7.833Q16.958 7.833 16.771 7.333Q16.583 6.833 16.958 6.5L19.458 4Q19.5 3.917 20 3.75Q20.125 3.75 20.542 4L23.083 6.5Q23.417 6.833 23.229 7.333Q23.042 7.833 22.542 7.833ZM20 36.25Q19.917 36.25 19.458 36L16.958 33.5Q16.583 33.167 16.771 32.667Q16.958 32.167 17.458 32.167H22.542Q23.042 32.167 23.229 32.667Q23.417 33.167 23.083 33.5L20.583 36Q20.5 36.042 20 36.25Z"/></svg>
